X:508
T:The Dissipated Youth
M:6/8
L:1/8
B:O'Neill's 508
N:"Graceful" "collected by F. O'Neill"
Z:Transcribed by Dave Wooldridge
K:G
(E/2F/2) \
| (G>AB) (BAB) | G3 (E2 F) | (G>AB) (dBG) | (A3 A2) (B/2d/2) |
e2 (e d2) (d  | c2) (c B)(AG) | {c}(BAB GED) | (E2 F) G2 ||
(F/2E/2) \
| (DB,).D  (DB,).D | G3 G2 z | (DB,).D  (DB,).D | A3 A2 z |
e2 (e d)(ed | c2) (c B)AG | {c}(BAB GED) | (E2 F) G2 ||


